icons/lets-cloud.svg

<?xml version="1.0" encoding="UTF-8"?>
<svg width="512px" height="62px" viewBox="0 0 512 62" version="1.1" xmlns="http://www.w3.org/2000/svg" xmlns:xlink="http://www.w3.org/1999/xlink" preserveAspectRatio="xMidYMid">
		<g>
				<path d="M329.963568,1.54512654 C333.109434,2.74407517 336.033877,4.45812359 338.617089,6.61705142 C339.134791,6.9766111 339.54919,7.46560249 339.818967,8.03526738 C340.038259,8.5895366 340.144504,9.18206015 340.131455,9.77799039 C340.155022,10.7475663 339.745275,11.6772079 339.013709,12.3139528 C338.314273,12.9612129 337.394641,13.3178926 336.44169,13.3115115 C335.454695,13.3070646 334.501072,12.9537132 333.749484,12.3139528 C331.927895,10.690279 329.853401,9.37494455 327.607887,8.41986832 C325.116569,7.54202722 322.483888,7.13449154 319.843756,7.21799039 C315.940734,7.19224556 312.112001,8.28497749 308.810516,10.3669106 C305.440366,12.4812582 302.681085,15.4394061 300.806009,18.948319 C298.833156,22.5671492 297.815565,26.6292388 297.84939,30.7507603 C297.804142,34.8889102 298.822187,38.9693654 300.806009,42.6012768 C302.687856,46.0925802 305.446573,49.0335554 308.810516,51.1346101 C312.112001,53.2165432 315.940734,54.3092751 319.843756,54.2835303 C324.981835,54.2246058 329.955902,52.4665668 333.989859,49.2837181 C334.718082,48.7184972 335.604714,48.3949396 336.525822,48.3582721 C337.438757,48.3394399 338.315232,48.7163244 338.929577,49.3918871 C339.591792,50.1421865 339.936553,51.1204454 339.89108,52.12015 C339.899246,53.1945191 339.464521,54.2248163 338.689202,54.9686007 C333.38943,59.3456472 326.717134,61.7158439 319.843756,61.6630608 C314.543564,61.7041272 309.335439,60.2773006 304.796244,57.5406195 C300.283604,54.8520336 296.576671,50.9998115 294.063474,46.3871923 C291.431582,41.6042077 290.081813,36.221695 290.145352,30.7627791 C290.084516,25.3423426 291.434771,19.9993081 294.063474,15.2585538 C296.591348,10.6567121 300.294938,6.8079644 304.796244,4.10512654 C309.333897,1.36750619 314.544563,-0.0516926542 319.843756,0.00672278029 C323.280391,-0.0661759551 326.703849,0.454254715 329.963568,1.54512654 Z M421.901221,18.701934 C424.068459,18.701934 425.825352,20.4588275 425.825352,22.6260655 L425.825352,41.5436242 C425.825352,45.6941093 426.939092,48.835017 429.166573,50.9663472 C431.585975,53.1678825 434.780978,54.3179107 438.048451,54.1633425 C440.086568,54.1894629 442.102804,53.7409533 443.937653,52.8532956 C445.621566,52.0570906 447.061595,50.8245582 448.108169,49.2837181 C449.105375,47.8084957 449.629427,46.0644517 449.610516,44.2839059 L449.610516,22.6501031 C449.564195,21.5853886 449.970203,20.5507231 450.728263,19.8016524 C452.339595,18.3713703 454.765758,18.3713703 456.377089,19.8016524 L456.377089,19.7776148 C457.11442,20.5376941 457.505734,21.5681563 457.458779,22.6260655 L457.458779,56.9276617 C457.491591,57.9725295 457.101613,58.9864715 456.377089,59.7400561 C455.250224,60.8977717 453.531037,61.250739 452.039176,60.6306757 C450.547314,60.0106124 449.584796,58.5430466 449.610516,56.9276617 L449.610516,56.0863472 C447.946031,57.7442996 445.957599,59.041281 443.76939,59.8963002 C441.473208,60.7998509 439.025641,61.2567302 436.558122,61.2424035 C433.221523,61.2892317 429.928324,60.4824807 426.991174,58.8987416 C424.170636,57.3582915 421.870229,55.0160583 420.380845,52.1682251 C418.703775,48.8747969 417.877429,45.2140826 417.977089,41.5195866 L417.977089,22.6260655 C417.977089,20.4588275 419.733983,18.701934 421.901221,18.701934 Z M510.209202,4.18925799 L510.209202,4.14118287 C510.863822,4.97334156 511.146431,6.0385604 510.990423,7.08578381 L507.384789,41.9402439 C507.042736,45.7384591 505.694416,49.3768486 503.478685,52.4807134 C499.087465,58.6562709 491.678367,61.9461316 484.152488,61.0621218 C480.378614,60.7190809 476.764739,59.3747691 473.684131,57.1680373 C470.68505,55.0374844 468.324615,52.1284977 466.857465,48.7548918 C465.340924,45.2624992 464.77294,41.4317218 465.210892,37.6495397 C465.546424,33.8785436 466.80989,30.2491751 468.888638,27.0850326 C470.818837,24.1149919 473.524502,21.7293522 476.712864,20.1862533 C485.368304,16.0522849 495.746626,18.9288849 501.038873,26.9287885 L503.154178,6.26850682 C503.240929,5.2227913 503.759137,4.26040454 504.584413,3.61235658 C506.334448,2.35080552 508.751689,2.59872769 510.209202,4.18925799 Z M184.091643,21.1237181 C186.95838,22.8653981 189.255459,25.4047137 190.701972,28.4311359 C192.298997,31.8092344 193.088984,35.5123 193.009577,39.2480373 C193.01303,40.1271799 192.656984,40.9695314 192.024038,41.5796805 C191.394201,42.1772614 190.567276,42.5183859 189.704439,42.5419445 L160.258404,42.5411829 C160.721556,45.9525684 162.466305,49.0595958 165.138028,51.2307603 C169.313166,54.4618604 174.837627,55.3660274 179.824977,53.6345162 C181.277736,53.1814886 182.64904,52.4998938 183.887324,51.6153613 C184.610847,51.0518317 185.506402,50.7547281 186.423286,50.7740467 C187.262301,50.727788 188.087435,51.0028328 188.730892,51.5432486 C189.571902,52.1559641 190.082174,53.1232635 190.113052,54.1633425 C190.117852,55.0837674 189.668115,55.9472635 188.911174,56.4709481 C186.956165,57.968336 184.756142,59.1151134 182.409014,59.8602439 C176.241453,62.0107184 169.457075,61.4968823 163.683756,58.4420279 C160.423594,56.6972804 157.7173,54.0742577 155.871549,50.870197 C153.967038,47.522123 152.995803,43.7243448 153.059155,39.8730139 C153.011491,36.0308763 153.937689,32.239253 155.751362,28.8517932 C157.448161,25.6701978 160.005301,23.029763 163.130892,21.2318871 C166.40142,19.3822472 170.106866,18.4403252 173.863662,18.5036242 C177.450022,18.4113546 180.991352,19.3185343 184.091643,21.1237181 Z M271.047512,20.0540467 C273.48433,20.9819344 275.643824,22.516747 277.321315,24.5130139 C277.918832,25.1766775 278.270904,26.0250437 278.318873,26.9167697 C278.282329,27.8788576 277.797544,28.7683721 277.008826,29.3205256 C276.374825,29.7477586 275.621434,29.9624119 274.857465,29.9334833 C273.51215,29.924547 272.221557,29.3997059 271.251831,28.4671923 C270.083545,27.3580414 268.695515,26.5063885 267.177465,25.9672862 C265.485748,25.4422645 263.72017,25.1946777 261.949296,25.2341406 C259.945731,25.1615706 257.954269,25.5738816 256.144225,26.4360186 C254.788303,26.9968834 253.895522,28.3100745 253.872676,29.7772392 C253.841281,30.6955795 254.111445,31.5989409 254.641878,32.349258 C255.431935,33.232949 256.438477,33.8956927 257.562441,34.2722627 C259.57763,35.0488448 261.656756,35.6480513 263.77615,36.0630608 C269.384914,37.1928261 273.347105,38.7552674 275.662723,40.7503848 C277.955718,42.6664986 279.244502,45.5275092 279.160188,48.5145162 C279.18062,50.7987669 278.510323,53.0358809 277.237183,54.9325444 C275.844478,56.9630823 273.89567,58.5488366 271.624413,59.4996805 C268.784311,60.6724343 265.730091,61.2374241 262.658404,61.1582721 C259.297676,61.1866112 255.956699,60.641975 252.778967,59.5477556 C250.088939,58.6948938 247.624623,57.2491617 245.5677,55.3171453 C244.915604,54.689324 244.554191,53.8184492 244.570141,52.9133894 C244.553483,51.7188077 245.129621,50.5935386 246.108545,49.9086946 C246.868096,49.2710309 247.811159,48.8921216 248.800751,48.8270045 C249.921789,48.8711206 250.976426,49.3702283 251.721315,50.2091641 C252.957076,51.4601864 254.455509,52.4208259 256.108169,53.0215585 C258.084891,53.8253098 260.20004,54.2336397 262.333897,54.2234364 C264.691695,54.3509258 267.040611,53.8446223 269.136526,52.7571453 C270.606833,52.0027289 271.533925,50.491569 271.540282,48.8390232 C271.504744,47.1825771 270.588523,45.6708125 269.136526,44.8728261 C266.628667,43.5026825 263.891475,42.6025048 261.059906,42.2166758 C251.228545,40.3337337 246.312864,36.2793988 246.312864,30.0536711 C246.249573,27.7240913 247.045239,25.4525934 248.548357,23.6716993 C250.117184,21.874969 252.131911,20.5235267 254.389484,19.7535772 C256.85737,18.871272 259.460685,18.427895 262.081502,18.4435303 C265.146492,18.3918865 268.192097,18.9389523 271.047512,20.0540467 Z M398.795117,21.2078495 C401.958056,22.9874881 404.566371,25.6082829 406.330892,28.7796805 C408.190996,32.1723712 409.131531,35.9925203 409.059155,39.8609951 C409.124077,43.6974343 408.196708,47.4855735 406.366948,50.8581782 C404.624026,54.033583 402.025811,56.6567806 398.86723,58.4300092 C392.000589,62.0710008 383.775562,62.0710008 376.90892,58.4300092 C373.732286,56.6684387 371.119533,54.043185 369.373146,50.8581782 C367.542361,47.4859694 366.614925,43.6975566 366.680939,39.8609951 C366.608018,35.9968974 367.535433,32.1795895 369.373146,28.7796805 C371.122705,25.5970478 373.734675,22.9725804 376.90892,21.2078495 C380.273885,19.3546685 384.065142,18.4141051 387.906103,18.4795866 C391.712603,18.4150592 395.468728,19.3561633 398.795117,21.2078495 Z M112.531831,0.763882715 C113.598454,0.760252179 114.621035,1.18897142 115.366143,1.95219706 C116.058028,2.66090658 116.455824,3.60186902 116.485684,4.58635799 L116.486009,52.8893519 L144.333521,52.8893519 C145.763389,52.8893518 147.084641,53.652177 147.799574,54.8904786 C148.514508,56.1287802 148.514508,57.6544306 147.799574,58.8927322 C147.084641,60.1310338 145.763389,60.8942503 144.333521,60.8942503 L112.483756,60.8942503 C111.421951,60.9092133 110.403733,60.47221 109.68338,59.691981 C108.994304,58.9867315 108.597445,58.0504364 108.566296,57.070387 L108.565634,4.81423452 C108.55314,3.73901147 108.988561,2.70706412 109.767512,1.96578381 C110.482013,1.19858753 111.48345,0.763179945 112.531831,0.763882715 Z M354.217465,1.29119183 C355.407424,1.97821534 356.14047,3.24788713 356.140469,4.62193405 L356.140469,46.6155491 C356.078664,48.2462984 356.452006,49.8641143 357.22216,51.302873 C357.720374,52.392153 358.789543,53.1080314 359.986479,53.153765 L361.909484,53.153765 C362.862388,53.1235404 363.779059,53.5201771 364.40939,54.2354552 C365.067394,55.0024585 365.410883,55.9899901 365.370892,56.9997744 C365.379078,58.1094052 364.827882,59.1485455 363.904601,59.7640937 C362.797337,60.5246119 361.472718,60.9042798 360.130704,60.8457838 L359.97446,60.8457838 C357.853462,60.8687775 355.776629,60.239434 354.025164,59.0429669 C352.204049,57.7738785 350.779053,56.01555 349.914742,53.971042 C348.910427,51.6549966 348.410588,49.1517076 348.448451,46.6275679 L348.448451,4.62193405 C348.448451,3.24788713 349.181496,1.97821534 350.371455,1.29119183 C351.561415,0.604168323 353.027505,0.604168323 354.217465,1.29119183 Z M206.723005,5.39113593 C208.847097,5.39113593 210.569014,7.11305298 210.569014,9.23714532 L210.569014,20.3184599 L217.10723,20.3184599 C218.067633,20.2750077 219.007268,20.6068972 219.727324,21.2439059 C220.385686,21.8674312 220.748299,22.7411982 220.724883,23.6476617 C220.743982,24.5253736 220.379781,25.3678636 219.727324,25.9552674 C219.007268,26.592276 218.067633,26.9241655 217.10723,26.8807134 L210.569014,26.8807134 L210.569014,45.9304786 C210.5059,47.7955575 211.106385,49.6225638 212.263662,51.086535 C213.242212,52.3992069 214.784892,53.1705468 216.42216,53.1657838 L219.042254,53.1657838 C219.935354,53.1628987 220.784199,53.5543349 221.361878,54.2354552 C222.019882,55.0024585 222.363371,55.9899901 222.32338,56.9997744 C222.348368,58.0685066 221.878136,59.0888218 221.04939,59.7640937 C220.12734,60.5099386 218.965225,60.894462 217.780282,60.8457838 L216.398122,60.8457838 C213.967097,60.8705542 211.580382,60.1945967 209.52338,58.8987416 C207.445189,57.5875434 205.759377,55.7397933 204.643756,53.5503848 C203.440394,51.1931771 202.833741,48.5767284 202.876995,45.9304786 L202.876995,26.9287885 L199.343474,26.9287885 C198.383072,26.9722406 197.443437,26.6403511 196.72338,26.0033425 C196.069585,25.4169013 195.705104,24.5737644 195.725822,23.6957369 C195.700871,22.7889889 196.063734,21.9146212 196.72338,21.291981 C197.443437,20.6549724 198.383072,20.3230829 199.343474,20.366535 L202.876995,20.366535 L202.876995,9.23714532 C202.876995,7.11305298 204.598912,5.39113593 206.723005,5.39113593 Z M480.751174,26.6763941 C478.557617,27.6905977 476.6741,29.2712584 475.294648,31.2555491 C473.833488,33.3972435 472.955337,35.8825763 472.746667,38.4668167 C472.447738,41.0267998 472.807659,43.6207113 473.7923,46.0025913 C474.710151,48.2513692 476.217311,50.2110927 478.155117,51.6754552 C482.176338,54.6118468 487.467729,55.1538469 492.000751,53.0936711 L492.01277,53.0335772 C494.20041,52.0010338 496.062816,50.3880566 497.397183,48.3702909 C498.826314,46.2153857 499.69015,43.735472 499.909108,41.1590232 C500.210568,38.6139792 499.863268,36.0340339 498.899531,33.6593049 C497.455113,30.295457 494.713864,27.6571836 491.297202,26.3425606 C487.88054,25.0279376 484.07785,25.1483114 480.751174,26.6763941 Z M380.863099,27.2532956 C378.788646,28.4846665 377.098783,30.2702603 375.983474,32.4093519 C374.783573,34.7118023 374.176358,37.276976 374.216714,39.8730139 C374.170071,42.458232 374.777824,45.0132766 375.983474,47.3006195 C377.106264,49.4249599 378.795161,51.1970542 380.863099,52.4206195 C385.231736,54.8813996 390.568452,54.8813996 394.937089,52.4206195 C396.987251,51.1975969 398.652938,49.4236411 399.744601,47.3006195 C400.926182,45.0057204 401.520796,42.4538327 401.475305,39.8730139 C401.517817,37.2809896 400.923534,34.7181427 399.744601,32.4093519 C398.660602,30.2715483 396.993919,28.4840312 394.937089,27.2532956 C390.568452,24.7925155 385.231736,24.7925155 380.863099,27.2532956 Z M164.753427,28.154704 C162.367102,30.3015572 160.803187,33.2126494 160.330516,36.3875679 L185.942535,36.3875679 C185.639095,33.2843875 184.281743,30.3788061 182.096526,28.154704 C179.880012,26.0599255 176.910748,24.9502443 173.863662,25.0778965 C170.549533,24.931886 167.300402,26.0292178 164.753427,28.154704 Z" fill="#47545F"></path>
				<g transform="translate(0.000000, 6.232450)">
						<path d="M17.4993427,42.6065728 L82.1243192,42.6065728 C83.8043013,42.4834733 85.4121075,43.3099906 86.2896641,44.7478319 C87.1672208,46.1856732 87.1672208,47.9934817 86.2896641,49.431323 C85.4121075,50.8691643 83.8043013,51.6956816 82.1243192,51.5725822 L17.4993427,51.5725822 C15.8193606,51.6956816 14.2115545,50.8691643 13.3339979,49.431323 C12.4564412,47.9934817 12.4564412,46.1856732 13.3339979,44.7478319 C14.2115545,43.3099906 15.8193606,42.4834733 17.4993427,42.6065728 Z M89.2875117,27.9797183 C91.7634069,27.9797183 93.7705164,29.9868279 93.7705164,32.462723 C93.7705164,34.9386181 91.7634069,36.9457277 89.2875117,36.9457277 L29.193615,36.9457277 C26.7177199,36.9457277 24.7106103,34.9386181 24.7106103,32.462723 C24.7106103,29.9868279 26.7177199,27.9797183 29.193615,27.9797183 L89.2875117,27.9797183 Z M13.4850704,13.3047887 C15.9941545,13.3047887 18.028169,15.3388033 18.028169,17.8478873 C18.028169,20.3569714 15.9941545,22.3909859 13.4850704,22.3909859 C10.9759864,22.3909859 8.94197183,20.3569714 8.94197183,17.8478873 C8.94197183,15.3388033 10.9759864,13.3047887 13.4850704,13.3047887 Z M82.7132394,13.3288263 C85.1184158,13.4007999 87.0112144,15.4065211 86.9438498,17.811831 C87.0112144,20.2171409 85.1184158,22.2228621 82.7132394,22.2948357 L26.0687324,22.330892 C24.9092699,22.2933087 23.8125165,21.7954984 23.0208982,20.9474971 C22.2292799,20.0994958 21.8079866,18.9711363 21.8501408,17.811831 C21.7826965,15.411067 23.6683028,13.4072745 26.0687324,13.3288263 L82.7132394,13.3288263 Z M63.4471362,0 C65.9230313,0 67.9301408,2.00710957 67.9301408,4.48300469 C67.9301408,6.95889982 65.9230313,8.96600939 63.4471362,8.96600939 L33.7968075,8.96600939 C31.3209124,8.96600939 29.3138028,6.95889982 29.3138028,4.48300469 C29.3138028,2.00710957 31.3209124,0 33.7968075,0 L63.4471362,0 Z" fill="#0DABE3"></path>
						<path d="M29.193615,36.9457277 L4.48300469,36.9457277 C2.00710957,36.9457277 0,34.9386181 0,32.462723 C0,29.9868279 2.00710957,27.9797183 4.48300469,27.9797183 L29.193615,27.9797183 C26.7177199,27.9797183 24.7106103,29.9868279 24.7106103,32.462723 C24.7106103,34.9386181 26.7177199,36.9457277 29.193615,36.9457277 Z" fill="#80D2EB"></path>
				</g>
				<circle fill="#00AFE6" cx="232.815775" cy="23.2390232" r="4.54309859"></circle>
		</g>
</svg>

<svg xmlns="http://www.w3.org/2000/svg" viewBox="0 0 511.032 61.664">
  <path fill="#47545f" d="M329.964 1.545a30.347 30.347 0 0 1 8.653 5.072c.518.36.932.849 1.202 1.418.22.555.326 1.147.312 1.743.024.97-.386 1.9-1.117 2.536a3.75 3.75 0 0 1-2.572.998 4.182 4.182 0 0 1-2.693-.998 22.415 22.415 0 0 0-6.141-3.894 21.333 21.333 0 0 0-7.764-1.202 20.432 20.432 0 0 0-11.033 3.149 22.836 22.836 0 0 0-8.005 8.581 24.242 24.242 0 0 0-2.957 11.803 24.17 24.17 0 0 0 2.957 11.85 22.836 22.836 0 0 0 8.005 8.534 20.432 20.432 0 0 0 11.033 3.149 23.268 23.268 0 0 0 14.146-5 4.423 4.423 0 0 1 2.536-.926 3.161 3.161 0 0 1 2.404 1.034 3.858 3.858 0 0 1 .961 2.728 3.907 3.907 0 0 1-1.202 2.849 29.242 29.242 0 0 1-18.845 6.694 28.713 28.713 0 0 1-15.048-4.122 29.302 29.302 0 0 1-10.733-11.154 31.645 31.645 0 0 1-3.918-15.624 31.25 31.25 0 0 1 3.918-15.504 29.674 29.674 0 0 1 10.733-11.154A28.52 28.52 0 0 1 319.844.007a29.89 29.89 0 0 1 10.12 1.538zM421.9 18.702a3.924 3.924 0 0 1 3.924 3.924v18.918c0 4.15 1.114 7.291 3.342 9.422a12.331 12.331 0 0 0 8.881 3.197 13.137 13.137 0 0 0 5.89-1.31 10.432 10.432 0 0 0 4.17-3.57 8.762 8.762 0 0 0 1.503-5V22.65a3.774 3.774 0 0 1 1.117-2.848 4.255 4.255 0 0 1 5.65 0v-.024a3.846 3.846 0 0 1 1.08 2.848v34.302a3.882 3.882 0 0 1-1.08 2.812 3.942 3.942 0 0 1-6.767-2.812v-.842a17.09 17.09 0 0 1-5.842 3.81 19.386 19.386 0 0 1-7.21 1.346c-3.337.047-6.63-.76-9.568-2.343a16.25 16.25 0 0 1-6.61-6.73 22.15 22.15 0 0 1-2.404-10.65V22.627a3.924 3.924 0 0 1 3.924-3.924zM510.21 4.189v-.048c.655.832.937 1.898.781 2.945l-3.605 34.854a21.453 21.453 0 0 1-3.906 10.54 20.744 20.744 0 0 1-19.327 8.582 21.285 21.285 0 0 1-10.468-3.894c-2.999-2.13-5.36-5.04-6.827-8.413a21.634 21.634 0 0 1-1.646-11.105 22.944 22.944 0 0 1 3.678-10.565 19.422 19.422 0 0 1 7.824-6.899c8.655-4.134 19.034-1.257 24.326 6.743l2.115-20.66a3.774 3.774 0 0 1 1.43-2.657 4.255 4.255 0 0 1 5.625.577zM184.092 21.124a17.259 17.259 0 0 1 6.61 7.307 24.11 24.11 0 0 1 2.308 10.817 3.223 3.223 0 0 1-.986 2.332 3.51 3.51 0 0 1-2.32.962h-29.446a13.545 13.545 0 0 0 4.88 8.689 15.624 15.624 0 0 0 14.687 2.404 14.326 14.326 0 0 0 4.062-2.02 3.99 3.99 0 0 1 2.536-.841 3.305 3.305 0 0 1 2.308.77 3.365 3.365 0 0 1 1.382 2.62 2.788 2.788 0 0 1-1.202 2.307 21.285 21.285 0 0 1-6.502 3.39 23.497 23.497 0 0 1-18.725-1.419 19.795 19.795 0 0 1-7.812-7.572 21.526 21.526 0 0 1-2.813-10.997 22.751 22.751 0 0 1 2.692-11.021 19.23 19.23 0 0 1 7.38-7.62 21.081 21.081 0 0 1 10.733-2.728 19.338 19.338 0 0 1 10.228 2.62zm86.956-1.07a15.312 15.312 0 0 1 6.273 4.459c.598.664.95 1.512.998 2.404a3.077 3.077 0 0 1-1.31 2.404 3.606 3.606 0 0 1-2.152.612 5.252 5.252 0 0 1-3.605-1.466 11.514 11.514 0 0 0-4.075-2.5 16.406 16.406 0 0 0-5.228-.733 12.451 12.451 0 0 0-5.805 1.202 3.678 3.678 0 0 0-2.271 3.341 4.206 4.206 0 0 0 .769 2.572 6.827 6.827 0 0 0 2.92 1.923 37.114 37.114 0 0 0 6.214 1.791c5.609 1.13 9.571 2.692 11.887 4.687a9.76 9.76 0 0 1 3.497 7.765c.02 2.284-.65 4.52-1.923 6.418a12.8 12.8 0 0 1-5.613 4.567 22.006 22.006 0 0 1-8.966 1.658 29.578 29.578 0 0 1-9.879-1.61 18.857 18.857 0 0 1-7.211-4.23 3.257 3.257 0 0 1-.998-2.405 3.606 3.606 0 0 1 1.539-3.004 4.663 4.663 0 0 1 2.692-1.082 4.122 4.122 0 0 1 2.92 1.382 11.863 11.863 0 0 0 4.387 2.813 16.321 16.321 0 0 0 6.226 1.201 13.22 13.22 0 0 0 6.803-1.466 4.423 4.423 0 0 0 2.403-3.918 4.64 4.64 0 0 0-2.403-3.966 23.449 23.449 0 0 0-8.077-2.656c-9.831-1.883-14.747-5.938-14.747-12.163a9.495 9.495 0 0 1 2.235-6.382 13.57 13.57 0 0 1 5.841-3.918 22.451 22.451 0 0 1 7.693-1.31c3.064-.052 6.11.495 8.966 1.61zm127.747 1.154a19.65 19.65 0 0 1 7.536 7.572 22.187 22.187 0 0 1 2.728 11.081 22.271 22.271 0 0 1-2.692 10.997 19.374 19.374 0 0 1-7.5 7.572 23.437 23.437 0 0 1-21.958 0 19.23 19.23 0 0 1-7.536-7.572 22.247 22.247 0 0 1-2.692-10.997 22.415 22.415 0 0 1 2.692-11.081 19.302 19.302 0 0 1 7.536-7.572 22.018 22.018 0 0 1 10.997-2.728 21.634 21.634 0 0 1 10.89 2.728zM112.532.764a3.942 3.942 0 0 1 3.954 3.822V52.89h27.848a4.002 4.002 0 1 1 0 8.005h-31.85a3.74 3.74 0 0 1-2.8-1.202 3.93 3.93 0 0 1-1.118-2.622V4.814a3.87 3.87 0 0 1 1.202-2.848 3.774 3.774 0 0 1 2.764-1.202zm241.685.527a3.846 3.846 0 0 1 1.923 3.33v41.995a9.194 9.194 0 0 0 1.082 4.687 3.173 3.173 0 0 0 2.764 1.85h1.923c.953-.03 1.87.367 2.5 1.082a4.002 4.002 0 0 1 .962 2.765 3.294 3.294 0 0 1-1.466 2.764 6.19 6.19 0 0 1-3.774 1.082h-.157a10.348 10.348 0 0 1-5.949-1.803 11.766 11.766 0 0 1-4.11-5.072 17.788 17.788 0 0 1-1.467-7.343V4.622a3.846 3.846 0 0 1 5.77-3.33zm-147.494 4.1a3.846 3.846 0 0 1 3.846 3.846v11.081h6.538c.96-.043 1.9.289 2.62.926a3.197 3.197 0 0 1 .998 2.404c.019.877-.345 1.72-.998 2.307-.72.637-1.66.97-2.62.926h-6.538v19.05a7.884 7.884 0 0 0 1.695 5.156 5.168 5.168 0 0 0 4.158 2.079h2.62a3.029 3.029 0 0 1 2.32 1.07 4.002 4.002 0 0 1 .961 2.764 3.461 3.461 0 0 1-1.274 2.764 4.88 4.88 0 0 1-3.269 1.082h-1.382a12.656 12.656 0 0 1-6.875-1.947 13.653 13.653 0 0 1-4.88-5.349 16.177 16.177 0 0 1-1.766-7.62V26.93h-3.534c-.96.043-1.9-.289-2.62-.926a3.005 3.005 0 0 1-.997-2.307 3.185 3.185 0 0 1 .997-2.404 3.702 3.702 0 0 1 2.62-.925h3.534V9.237a3.846 3.846 0 0 1 3.846-3.846zm274.028 21.285a13.593 13.593 0 0 0-5.456 4.58 14.927 14.927 0 0 0-2.548 7.21 15.132 15.132 0 0 0 1.045 7.537 13.51 13.51 0 0 0 4.363 5.672 13.798 13.798 0 0 0 13.846 1.419l.012-.06a13.22 13.22 0 0 0 5.384-4.664 15.408 15.408 0 0 0 2.512-7.211 15.191 15.191 0 0 0-1.01-7.5 13.581 13.581 0 0 0-18.148-6.983zm-99.888.577a12.968 12.968 0 0 0-4.88 5.156 15.624 15.624 0 0 0-1.766 7.464 15.336 15.336 0 0 0 1.766 7.428 13.016 13.016 0 0 0 4.88 5.12 14.338 14.338 0 0 0 14.074 0 12.752 12.752 0 0 0 4.808-5.12 15.624 15.624 0 0 0 1.73-7.428 15.84 15.84 0 0 0-1.73-7.464 12.704 12.704 0 0 0-4.808-5.156 14.338 14.338 0 0 0-14.074 0zm-216.11.902a13.81 13.81 0 0 0-4.422 8.233h25.612a13.641 13.641 0 0 0-3.846-8.233 11.298 11.298 0 0 0-8.233-3.077 13.305 13.305 0 0 0-9.11 3.077z"/>
  <path fill="#0dabe3" d="M17.5 48.839h64.624a4.495 4.495 0 1 1 0 8.966H17.5a4.495 4.495 0 1 1 0-8.966zm71.788-14.627a4.483 4.483 0 0 1 0 8.966H29.194a4.483 4.483 0 0 1 0-8.966zM13.485 19.537a4.543 4.543 0 1 1 0 9.086 4.543 4.543 0 0 1 0-9.086zm69.228.024a4.363 4.363 0 0 1 4.23 4.483 4.363 4.363 0 0 1-4.23 4.483l-56.644.036a4.363 4.363 0 0 1-4.219-4.519 4.363 4.363 0 0 1 4.219-4.483zM63.447 6.232a4.483 4.483 0 0 1 0 8.966h-29.65a4.483 4.483 0 0 1 0-8.966z"/>
  <path fill="#80d2eb" d="M29.194 43.178H4.483a4.483 4.483 0 0 1 0-8.966h24.71a4.483 4.483 0 0 0 0 8.966z"/>
  <circle cx="232.816" cy="23.239" r="4.543" fill="#00afe6"/>
</svg>
